ePapirus/24x24/panel/btsync-gui-paused.svg

<?xml version="1.0" encoding="UTF-8" standalone="no"?>
<svg xmlns="http://www.w3.org/2000/svg" viewBox="0 0 24 24" version="1.1" id="svg2" width="24" height="24">
 <defs id="defs12">
  <style type="text/css" id="current-color-scheme">
   .ColorScheme-Text { color:#6e6e6e; } .ColorScheme-Highlight { color:#5294e2; } .ColorScheme-ButtonBackground { color:#ffffff; }
  </style>
 </defs>
 <g transform="matrix(0.34783,0,0,0.34783,3.6435998,3.6456998)" id="g4" style="opacity:1">
  <path style="fill:currentColor;stroke-width:1.00001121" class="ColorScheme-ButtonBackground" d="m 11,3 c -4.4180497,0 -8,3.5819503 -8,8 0,4.41805 3.5819503,8 8,8 4.41805,0 8,-3.58195 8,-8 C 19,6.5819503 15.41805,3 11,3 Z M 7.25,5 h 3 C 10.537546,5.0008689 10.810795,5.1252673 11,5.3417969 11.189205,5.1252673 11.462454,5.0008689 11.75,5 h 3 c 0.552291,0 1,0.4477091 1,1 V 7.9140625 C 15.951002,8.1960657 16.135248,8.4924964 16.28125,8.8125 L 17.5,8.34375 l -1,3.46875 -0.75,-0.417969 v 1.408203 l 0.59375,0.228516 C 16.186748,13.407254 15.980003,13.749215 15.75,14.074219 V 16 c 0,0.552291 -0.447709,1 -1,1 h -3 C 11.46277,16.999636 11.189572,16.875943 11,16.660156 10.810428,16.875943 10.53723,16.999636 10.25,17 h -3 c -0.5522909,0 -1,-0.447709 -1,-1 V 14.060547 C 6.0479977,13.775544 5.8627516,13.478254 5.71875,13.15625 L 4.5,13.595703 l 1,-3.375 0.75,0.402344 V 9.2285156 L 5.65625,9 C 5.8092517,8.6179957 6.0179974,8.2704568 6.25,7.9394531 V 6 c 0,-0.5522909 0.4477091,-1 1,-1 z M 8,6 C 7.446,6 7,6.446 7,7 v 8 c 0,0.554 0.446,1 1,1 h 1 c 0.554,0 1,-0.446 1,-1 V 7 C 10,6.446 9.554,6 9,6 Z m 5,0 c -0.554,0 -1,0.446 -1,1 v 8 c 0,0.554 0.446,1 1,1 h 1 c 0.554,0 1,-0.446 1,-1 V 7 C 15,6.446 14.554,6 14,6 Z" transform="matrix(2.8749677,0,0,2.8749677,-7.6002645,-7.6063019)" id="path6"/>
 </g>
</svg>

<?xml version="1.0"?>
<svg xmlns="http://www.w3.org/2000/svg" height="24" width="24" version="1.1" id="svg2">
 <defs id="defs12">
  <style type="text/css" id="current-color-scheme">
   .ColorScheme-Text { color:#5c616c; } .ColorScheme-Highlight { color:#5294e2; } .ColorScheme-ButtonBackground { color:#ffffff; }
  </style>
 </defs>
 <g opacity="1" transform="matrix(.34783 0 0 .34783 3.6436 3.6457)" id="g4">
  <path style="fill:currentColor" d="m11 3c-4.4184 0-8 3.5816-8 8s3.5816 8 8 8 8-3.5816 8-8-3.5816-8-8-8zm-3.75 2h3a1.0001 1.0001 0 0 1 0.75 0.3418 1.0001 1.0001 0 0 1 0.75 -0.3418h3a1.0001 1.0001 0 0 1 1 1v1.9141c0.201 0.2821 0.385 0.5775 0.531 0.8984l1.219-0.4687-1 3.4688-0.75-0.41797v1.4082l0.59375 0.22852c-0.157 0.376-0.364 0.718-0.594 1.043v1.926a1.0001 1.0001 0 0 1 -1 1h-3a1.0001 1.0001 0 0 1 -0.75 -0.34 1.0001 1.0001 0 0 1 -0.75 0.34h-3a1.0001 1.0001 0 0 1 -1 -1v-1.9395c-0.2017-0.285-0.3874-0.581-0.5312-0.904l-1.2188 0.438 1-3.375 0.75 0.40234v-1.3926l-0.5938-0.2287c0.1533-0.3816 0.3617-0.7296 0.5938-1.0605v-1.9395a1.0001 1.0001 0 0 1 1 -1zm5.5 2.75v6.4922c0.37158-0.18102 0.70849-0.42012 1-0.70703v-3.2539l-0.562-0.3122 0.562-0.2188v-1.2852c-0.291-0.2904-0.626-0.534-1-0.7148zm-3.5 0.00977c-0.37303 0.18567-0.70824 0.4313-1 0.72265v3.2148l0.5625 0.303-0.5625 0.219v1.293c0.29074 0.29399 0.62696 0.53987 1 0.72656v-6.4785z" transform="matrix(2.875 0 0 2.875 -7.6003 -7.6063)" id="path6" class="ColorScheme-ButtonBackground"/>
 </g>
</svg>
